src/icons/2x3.svg

<svg xmlns="http://www.w3.org/2000/svg" width="512" height="512" viewBox="0 0 512 512">
    <path d="M327.4 263.1H416v146.4h-88.6V263.1zm-115.7 0h88.6v146.4h-88.6V263.1zm-115.7 0h88.6v146.4H96V263.1zM327.4 89.5H416v146.4h-88.6V89.5zm-115.7 0h88.6v146.4h-88.6V89.5zM96 89.5h88.6v146.4H96V89.5z"/>
</svg>

<?xml version="1.0" encoding="UTF-8"?>
<svg width="512px" height="512px" viewBox="0 0 512 512" version="1.1" xmlns="http://www.w3.org/2000/svg" xmlns:xlink="http://www.w3.org/1999/xlink">
    <!-- Generator: Sketch 62 (91390) - https://sketch.com -->
    <title>2x3</title>
    <desc>Created with Sketch.</desc>
    <g id="2x3" stroke="none" stroke-width="1" fill="none" fill-rule="evenodd">
        <path d="M327.4,263.1 L416,263.1 L416,409.5 L327.4,409.5 L327.4,263.1 Z M211.7,263.1 L300.3,263.1 L300.3,409.5 L211.7,409.5 L211.7,263.1 L211.7,263.1 Z M96,263.1 L184.6,263.1 L184.6,409.5 L96,409.5 L96,263.1 Z M327.4,89.5 L416,89.5 L416,235.9 L327.4,235.9 L327.4,89.5 Z M211.7,89.5 L300.3,89.5 L300.3,235.9 L211.7,235.9 L211.7,89.5 L211.7,89.5 Z M96,89.5 L184.6,89.5 L184.6,235.9 L96,235.9 L96,89.5 Z" id="Shape" fill="#000000" fill-rule="nonzero"></path>
    </g>
</svg>
